X: 1
T: Accord, The
M: 6/8
L: 1/8
R: jig
K: Emin
B2A GFG|BGg eBG|EBA G2B|AFD FED|
BGF EFG| ~B3 dBd|ege dBG|AFD E2 z :|
~g3 aga|bgf efg|~f3 gfg|afe dAF|
~G3 ABd|egf e2d|edB dBG|AFD E2z :|
